!!!SOCIAL_FUNCTION:	bird dance songs
!!!PDT:	1956
!!!OTL: No_173_Steal_Partner_Dance_Song_(b).krn
!!!LANG: Non-Tone
!!!LING_GROUP: Muskogean
!!!REG: Florida
**kern
*staff1
=1-
*clefF4
*k[f#]
*M3/4
16G\LL
16G\J
8d\J
8d\L
(16d\L
16B\JJ)
8.B\L
16G\Jk
=2||
*M2/4
16B\LL
16B\J
8B\J
8d\L
8B\J
=3
(16B\LL
16A\)
16B\
16A\JJ
4G\
=4
16G\LL
16G\J
8G\J
16A\LL
16G\J
8B\J
=5
16B\LL
16A\
16B\
16A\JJ
(8.G\L
16D\Jk)
=6
16G\LL
16G\J
8G\J
8r
16.D\LL
32D\JJk
=7
4G\
8G\
8r
=8
16G\LL
16G\J
8G\J
16A\LL
16G\J
8B\J
=9
16.B\LL
32A\K
(16B\
16A\JJ)
4G\
=10
4G\
8r
8G\
=11||
*M3/4
8d\L
8d\J
8d\L
8d\J
(8.B\L
16G\Jk)
=12||
*M2/4
16B\LL
16B\J
8B\J
8d\L
8B\J
=13
(16B\LL
16A\)
16B\
16A\JJ
8G\
8r
=14
16G\LL
16G\J
8G\J
16A\LL
16G\J
8B\J
=15||
*M3/4
8A\L
8A\J
4G\
8r
8D\
=16||
*M2/4
4G\
8.D\L
16D\Jk
=17||
*M3/4
4G\
4G\
8G\L
16G\L
32G\L
32G\JJJ
=18
*M2/4
(4..d\
16B\)
=19
4d\
4r
==
*-
